app/assets/images/heroicon/solid/arrow-path.svg

<svg width="24" height="24" viewBox="0 0 24 24" fill="none" xmlns="http://www.w3.org/2000/svg">
<path fill-rule="evenodd" clip-rule="evenodd" d="M12 5.25C10.7869 5.25 9.58465 5.2957 8.39481 5.38545C6.78038 5.50723 5.50723 6.78038 5.38545 8.39481C5.34144 8.97827 5.30802 9.56471 5.28539 10.1539L6.96967 8.46967C7.26256 8.17678 7.73744 8.17678 8.03033 8.46967C8.32322 8.76256 8.32322 9.23744 8.03033 9.53033L5.03033 12.5303C4.73744 12.8232 4.26256 12.8232 3.96967 12.5303L0.96967 9.53033C0.676777 9.23744 0.676777 8.76256 0.96967 8.46967C1.26256 8.17678 1.73744 8.17678 2.03033 8.46967L3.78186 10.2212C3.80517 9.57151 3.84119 8.92503 3.8897 8.28199C4.06725 5.92812 5.92812 4.06725 8.28199 3.8897C9.50933 3.79712 10.7492 3.75 12 3.75C13.2508 3.75 14.4907 3.79712 15.718 3.8897C18.0719 4.06725 19.9327 5.92812 20.1103 8.28199C20.1272 8.50552 20.1425 8.72948 20.1564 8.95384C20.1818 9.36727 19.8674 9.72308 19.4539 9.74858C19.0405 9.77407 18.6847 9.45959 18.6592 9.04616C18.6458 8.82864 18.6309 8.61152 18.6146 8.39481C18.4928 6.78038 17.2196 5.50723 15.6052 5.38545C14.4153 5.2957 13.2131 5.25 12 5.25ZM18.9697 11.4697C19.2626 11.1768 19.7374 11.1768 20.0303 11.4697L23.0303 14.4697C23.3232 14.7626 23.3232 15.2374 23.0303 15.5303C22.7374 15.8232 22.2626 15.8232 21.9697 15.5303L20.2181 13.7788C20.1948 14.4285 20.1588 15.075 20.1103 15.718C19.9327 18.0719 18.0719 19.9327 15.718 20.1103C14.4907 20.2029 13.2508 20.25 12 20.25C10.7492 20.25 9.50933 20.2029 8.28199 20.1103C5.92812 19.9327 4.06725 18.0719 3.8897 15.718C3.87284 15.4945 3.85748 15.2705 3.84365 15.0462C3.81815 14.6327 4.13264 14.2769 4.54606 14.2514C4.95949 14.2259 5.31531 14.5404 5.3408 14.9538C5.35422 15.1714 5.3691 15.3885 5.38545 15.6052C5.50723 17.2196 6.78038 18.4928 8.39481 18.6146C9.58465 18.7043 10.7869 18.75 12 18.75C13.2131 18.75 14.4153 18.7043 15.6052 18.6146C17.2196 18.4928 18.4928 17.2196 18.6146 15.6052C18.6586 15.0217 18.692 14.4353 18.7146 13.8461L17.0303 15.5303C16.7374 15.8232 16.2626 15.8232 15.9697 15.5303C15.6768 15.2374 15.6768 14.7626 15.9697 14.4697L18.9697 11.4697Z" fill="#0F172A"/>
</svg>

<svg xmlns="http://www.w3.org/2000/svg" viewBox="0 0 24 24" fill="currentColor" aria-hidden="true">
  <path fill-rule="evenodd" d="M12 5.25c-1.213 0-2.415.046-3.605.135a3.256 3.256 0 00-3.01 3.01c-.044.583-.077 1.17-.1 1.759L6.97 8.47a.75.75 0 011.06 1.06l-3 3a.75.75 0 01-1.06 0l-3-3a.75.75 0 011.06-1.06l1.752 1.751c.023-.65.06-1.296.108-1.939A4.756 4.756 0 018.282 3.89a49.423 49.423 0 017.436 0 4.756 4.756 0 014.392 4.392c.017.224.032.447.046.672a.75.75 0 01-1.497.092 48.187 48.187 0 00-.044-.651 3.256 3.256 0 00-3.01-3.01A47.926 47.926 0 0012 5.25zm6.97 6.22a.75.75 0 011.06 0l3 3a.75.75 0 11-1.06 1.06l-1.752-1.751a49.25 49.25 0 01-.108 1.939 4.756 4.756 0 01-4.392 4.392 49.412 49.412 0 01-7.436 0 4.756 4.756 0 01-4.392-4.392 49.112 49.112 0 01-.046-.672.75.75 0 111.497-.092c.013.217.028.434.044.651a3.256 3.256 0 003.01 3.01 47.951 47.951 0 007.21 0 3.256 3.256 0 003.01-3.01c.044-.583.077-1.17.1-1.759L17.03 15.53a.75.75 0 11-1.06-1.06l3-3z" clip-rule="evenodd"/>
</svg>
